toolkits/global/packages/global-context/img/icons/article.svg

<svg height="24" viewBox="0 0 24 24" width="24" xmlns="http://www.w3.org/2000/svg"><path d="m16 18v-12.9906311c0-.0073595-.0019884-.0093689.0014977-.0093689l-11.00158888.00087166v13.00506804c0 .5482678.44615281.9940603.99415146.9940603h10.27350412c-.1701701-.2941734-.2675644-.6357129-.2675644-1zm-12 .0059397v-13.00506804c0-.5562408.44704472-1.00087166.99850233-1.00087166h11.00299537c.5510129 0 .9985023.45190985.9985023 1.0093689v2.9906311h3v9.9914698c0 1.1065798-.8927712 2.0085302-1.9940603 2.0085302h-12.01187942c-1.09954652 0-1.99406028-.8927712-1.99406028-1.9940603zm13-9.0059397v9c0 .5522847.4477153 1 1 1s1-.4477153 1-1v-9zm-10-2h7v4h-7zm1 1v2h5v-2zm-1 4h7v1h-7zm0 2h7v1h-7zm0 2h7v1h-7z" fill="#666" fill-rule="evenodd"/></svg>

<?xml version="1.0" encoding="UTF-8"?>
<svg width="24px" height="24px" viewBox="0 0 24 24" version="1.1" xmlns="http://www.w3.org/2000/svg" xmlns:xlink="http://www.w3.org/1999/xlink">
    <!-- Generator: Sketch 63.1 (92452) - https://sketch.com -->
    <title>icon-icon / article</title>
    <desc>Created with Sketch.</desc>
    <g id="icon-/-article" stroke="none" stroke-width="1" fill="none" fill-rule="evenodd">
        <path d="M16,18 L16,5.0093689 C16,5.0020094 15.9980116,5 16.0014977,5 L4.99990882,5.00087166 L4.99990882,18.0059397 C4.99990882,18.5542075 5.44606163,19 5.99406028,19 L16.2675644,19 C16.0973943,18.7058266 16,18.3642871 16,18 Z M4,18.0059397 L4,5.00087166 C4,4.44463086 4.44704472,4 4.99850233,4 L16.0014977,4 C16.5525106,4 17,4.45190985 17,5.0093689 L17,8 L20,8 L20,17.9914698 C20,19.0980496 19.1072288,20 18.0059397,20 L5.99406028,20 C4.89451376,20 4,19.1072288 4,18.0059397 Z M17,9 L17,18 C17,18.5522847 17.4477153,19 18,19 C18.5522847,19 19,18.5522847 19,18 L19,9 L17,9 Z M7,7 L14,7 L14,11 L7,11 L7,7 Z M8,8 L8,10 L13,10 L13,8 L8,8 Z M7,12 L14,12 L14,13 L7,13 L7,12 Z M7,14 L14,14 L14,15 L7,15 L7,14 Z M7,16 L14,16 L14,17 L7,17 L7,16 Z" id="article" fill="#666666"></path>
    </g>
</svg>
